content/img/strategy-session/quotes.svg

<svg width="32" height="25" viewBox="0 0 32 25" fill="none" xmlns="http://www.w3.org/2000/svg">
<path d="M13.2893 0.114258V4.14787C11.2176 4.14787 9.28926 4.83134 7.50413 6.19829C5.71901 7.54283 4.82645 9.15627 4.82645 11.0386C4.82645 12.1591 5.26722 12.7193 6.14876 12.7193C6.34711 12.7193 6.7438 12.6409 7.33884 12.484C7.95592 12.3496 8.45179 12.2823 8.82645 12.2823C10.0386 12.2823 11.1736 12.7865 12.2314 13.7949C13.3113 14.7809 13.8512 16.1479 13.8512 17.8958C13.8512 19.5989 13.3003 21.0666 12.1983 22.2991C11.0964 23.5092 9.58678 24.1143 7.66942 24.1143C5.37741 24.1143 3.52617 23.2403 2.1157 21.4924C0.705234 19.7221 0 17.2683 0 14.1311C0 9.80614 1.28926 6.42238 3.86777 3.9798C6.46832 1.51482 9.60882 0.226303 13.2893 0.114258ZM31.438 0.114258V4.14787C29.4766 4.14787 27.5702 4.82014 25.719 6.16468C23.8898 7.48681 22.9752 9.11146 22.9752 11.0386C22.9752 12.1591 23.416 12.7193 24.2975 12.7193C24.4959 12.7193 24.8926 12.6409 25.4876 12.484C26.1047 12.3496 26.6006 12.2823 26.9752 12.2823C28.2534 12.2823 29.4105 12.7977 30.4463 13.8285C31.4821 14.8594 32 16.2151 32 17.8958C32 19.5989 31.449 21.0666 30.3471 22.2991C29.2452 23.5092 27.7355 24.1143 25.8182 24.1143C23.5262 24.1143 21.6749 23.2403 20.2645 21.4924C18.854 19.7221 18.1488 17.2683 18.1488 14.1311C18.1488 9.80614 19.438 6.42238 22.0165 3.9798C24.6171 1.51482 27.7576 0.226303 31.438 0.114258Z" fill="#ACD8FB"/>
</svg>

<svg width="32" height="25" viewBox="0 0 32 25" fill="none" xmlns="http://www.w3.org/2000/svg"><path d="M13.29.114v4.034c-2.072 0-4 .683-5.786 2.05-1.785 1.345-2.678 2.958-2.678 4.84 0 1.121.441 1.681 1.323 1.681.198 0 .595-.078 1.19-.235.617-.134 1.113-.202 1.487-.202 1.213 0 2.348.505 3.405 1.513 1.08.986 1.62 2.353 1.62 4.1 0 1.704-.55 3.172-1.653 4.404-1.102 1.21-2.611 1.815-4.529 1.815-2.292 0-4.143-.874-5.553-2.622C.706 19.722 0 17.268 0 14.132 0 9.805 1.29 6.421 3.868 3.98c2.6-2.465 5.74-3.754 9.421-3.866zm18.148 0v4.034c-1.961 0-3.868.672-5.719 2.017-1.83 1.322-2.744 2.946-2.744 4.874 0 1.12.441 1.68 1.322 1.68.199 0 .596-.078 1.19-.235.618-.134 1.114-.202 1.488-.202 1.278 0 2.435.516 3.471 1.546C31.482 14.86 32 16.215 32 17.896c0 1.703-.551 3.17-1.653 4.403-1.102 1.21-2.612 1.815-4.529 1.815-2.292 0-4.143-.874-5.553-2.622-1.411-1.77-2.116-4.224-2.116-7.36 0-4.326 1.289-7.71 3.867-10.152C24.617 1.515 27.759.226 31.439.114z" fill="#ACD8FB"/></svg>
